icons/round/hardware/ic_keyboard_hide_24px.svg

<svg xmlns="http://www.w3.org/2000/svg" height="24" viewBox="0 0 24 24" width="24"><path d="M20 3H4c-1.1 0-1.99.9-1.99 2L2 15c0 1.1.9 2 2 2h16c1.1 0 2-.9 2-2V5c0-1.1-.9-2-2-2zm-9 3h2v2h-2V6zm0 3h2v2h-2V9zM8 6h2v2H8V6zm0 3h2v2H8V9zm-1 2H5V9h2v2zm0-3H5V6h2v2zm8 7H9c-.55 0-1-.45-1-1s.45-1 1-1h6c.55 0 1 .45 1 1s-.45 1-1 1zm1-4h-2V9h2v2zm0-3h-2V6h2v2zm3 3h-2V9h2v2zm0-3h-2V6h2v2zm-6.65 14.65l2.79-2.79c.31-.31.09-.85-.35-.85H9.21c-.45 0-.67.54-.35.85l2.79 2.79c.19.19.51.19.7 0z"/></svg>

<svg xmlns="http://www.w3.org/2000/svg" enable-background="new 0 0 24 24" height="24" viewBox="0 0 24 24" width="24"><g><rect fill="none" height="24" width="24" y="0"/></g><g><g><g><path d="M20,3.1H4c-1.1,0-1.99,0.9-1.99,2L2,15.1c0,1.1,0.9,2,2,2h16c1.1,0,2-0.9,2-2v-10C22,4,21.1,3.1,20,3.1z M11,6.1h2v2h-2 V6.1z M11,9.1h2v2h-2V9.1z M8,6.1h2v2H8V6.1z M8,9.1h2v2H8V9.1z M7,11.1H5v-2h2V11.1z M7,8.1H5v-2h2V8.1z M15,15.1H9 c-0.55,0-1-0.45-1-1l0,0c0-0.55,0.45-1,1-1h6c0.55,0,1,0.45,1,1l0,0C16,14.65,15.55,15.1,15,15.1z M16,11.1h-2v-2h2V11.1z M16,8.1h-2v-2h2V8.1z M19,11.1h-2v-2h2V11.1z M19,8.1h-2v-2h2V8.1z M12.35,22.75l2.79-2.79c0.31-0.31,0.09-0.85-0.35-0.85H9.21 c-0.45,0-0.67,0.54-0.35,0.85l2.79,2.79C11.84,22.94,12.16,22.94,12.35,22.75z"/></g></g></g></svg>
